X: 1
T: Pat Clark's
M: 4/4
L: 1/8
R: reel
K: Dmaj
|: D2 (3(FED) FAA(c | de)fd gbe(g | fe)df ecA(F | GB)AG EDCE |
D2 (3(FED) FAA(c | de)fd gbe(g | fe)df edc(e |1 dB)AF D(A,G,A,) :|2 dBAF D3g ||
|:fedf ecAF | GBA(F GE)EF | DFA(F EG)BG | FAd(f e2)fg | afb(f gf)ec |
def(d AG)FA | (3GGG (BG) (3FFF (AF) |1 EDCE D3g :|2 EDCE D(A,G,A,) ||
&quot;Last time&quot; EDCE D2 ||
